border-bottom.svg

<svg fill="currentColor" viewBox="0 0 24 24"><path d="M5 15H3v2h2m-2 4h18v-2H3m2-8H3v2h2m14-4h2V7h-2m0-2h2V3h-2M5 7H3v2h2m14 8h2v-2h-2m0-2h2v-2h-2m-2-8h-2v2h2m-4-2h-2v2h2m4 6h-2v2h2m-4-6h-2v2h2M5 3H3v2h2m8 6h-2v2h2M9 3H7v2h2m4 10h-2v2h2m-4-6H7v2h2z"/></svg>

<svg  viewBox="0 0 24 24" fill="currentColor"><path  d="M5,15H3V17H5M3,21H21V19H3M5,11H3V13H5M19,9H21V7H19M19,5H21V3H19M5,7H3V9H5M19,17H21V15H19M19,13H21V11H19M17,3H15V5H17M13,3H11V5H13M17,11H15V13H17M13,7H11V9H13M5,3H3V5H5M13,11H11V13H13M9,3H7V5H9M13,15H11V17H13M9,11H7V13H9V11Z"/></svg>
